img/prop-icon6.svg

<svg width="28" height="30" viewBox="0 0 28 30" fill="none" xmlns="http://www.w3.org/2000/svg">
<path d="M27.2799 15.4707C27.2799 13.9478 26.041 12.7089 24.5181 12.7089H14.2452V3.23238C14.2452 1.45008 12.795 0 11.0127 0H3.95211C2.16975 0 0.719727 1.45008 0.719727 3.23238V15.4707C0.719727 16.0402 0.893105 16.57 1.18971 17.0102C1.68693 18.7801 2.58307 20.4499 3.79016 21.8477C4.89611 23.1286 6.2668 24.1879 7.78027 24.9356V29.1211C7.78027 29.6065 8.17379 30 8.65918 30H18.0732C18.5586 30 18.9521 29.6065 18.9521 29.1211V24.9359C21.7942 23.5347 24.0172 21.107 25.1612 18.156C26.3748 17.8654 27.2799 16.7721 27.2799 15.4707ZM3.48137 12.7089C3.13782 12.7088 2.79731 12.7732 2.47748 12.8986V5.52346H12.4873V12.709L3.48137 12.7089ZM3.95211 1.75781H11.0127C11.8258 1.75781 12.4873 2.41934 12.4873 3.23238V3.76564H2.47754V3.23238C2.47754 2.41934 3.139 1.75781 3.95211 1.75781ZM17.7213 23.57C17.5646 23.6384 17.4314 23.7511 17.3378 23.8941C17.2442 24.0372 17.1943 24.2044 17.1943 24.3754V28.2422H9.53809V24.3754C9.53808 24.2044 9.48823 24.0372 9.39463 23.8941C9.30103 23.7511 9.16774 23.6384 9.01109 23.57C6.59668 22.515 4.63865 20.5866 3.51928 18.2324H23.2164C22.0977 20.6004 20.1471 22.51 17.7213 23.57ZM24.5182 16.4746H3.48137C2.92783 16.4746 2.47748 16.0242 2.47748 15.4707C2.47748 14.9171 2.92783 14.4667 3.48137 14.4667H24.5181C25.0717 14.4667 25.5221 14.9171 25.5221 15.4707C25.5221 16.0242 25.0718 16.4746 24.5182 16.4746Z" fill="#E0E3E4"/>
</svg>

<svg width="28" height="30" fill="none" xmlns="http://www.w3.org/2000/svg"><path d="M27.28 15.47a2.765 2.765 0 00-2.762-2.761H14.245V3.232A3.236 3.236 0 0011.013 0h-7.06A3.236 3.236 0 00.72 3.232v12.239c0 .57.173 1.099.47 1.54a12.696 12.696 0 002.6 4.837 12.77 12.77 0 003.99 3.088v4.185a.88.88 0 00.88.879h9.413a.879.879 0 00.88-.879v-4.185a12.686 12.686 0 006.208-6.78 2.766 2.766 0 002.119-2.685zm-23.8-2.76c-.343 0-.684.064-1.004.19V5.523h10.01v7.186H3.481zm.471-10.951h7.06c.814 0 1.475.661 1.475 1.474v.534H2.477v-.534c0-.813.662-1.474 1.475-1.474zm13.77 21.812a.878.878 0 00-.528.805v3.867H9.538v-3.867a.88.88 0 00-.527-.805 11.002 11.002 0 01-5.492-5.338h19.697a10.927 10.927 0 01-5.495 5.338zm6.796-7.095H3.481a1.005 1.005 0 010-2.008h21.037a1.005 1.005 0 010 2.008z" fill="#E0E3E4"/></svg>
